X:165
T: Art O'Keeffe's Slide
S: "Johnny O'Leary of Sliabh Luachra" (#268)
Z: B.Black
L: 1/8
M: 12/8
Q: 350
R: slide
K: Ador
B|: cBA BAG E2A A2B|d2B G2B dBA GAB|
c2A BAG E2A A2e|edB BAG E2A A3 :|
A2B c2d ede gfg|eaf g2e dBA G3|
A2B Bcd eaf g2e|edB BAG E2A A3 :|
